material/.icons/material/basket-unfill.svg

<svg xmlns="http://www.w3.org/2000/svg" viewBox="0 0 24 24"><path d="M3 10h3V7H3v3m2-5h3V2H5v3m3 5h3V7H8v3m9-9l-5 5h3v4h4V6h3l-5-5M7.5 22c-.78 0-1.46-.45-1.79-1.1L3.1 13.44 3 13a1 1 0 011-1h16a1 1 0 011 1l-.04.29-2.67 7.61c-.33.65-1.01 1.1-1.79 1.1h-9m.11-2h8.78l2.18-6H5.42l2.19 6z"/></svg>

<?xml version="1.0" encoding="UTF-8"?><!DOCTYPE svg PUBLIC "-//W3C//DTD SVG 1.1//EN" "http://www.w3.org/Graphics/SVG/1.1/DTD/svg11.dtd"><svg xmlns="http://www.w3.org/2000/svg" xmlns:xlink="http://www.w3.org/1999/xlink" version="1.1" id="mdi-basket-unfill" width="24" height="24" viewBox="0 0 24 24"><path d="M3,10H6V7H3V10M5,5H8V2H5V5M8,10H11V7H8V10M17,1L12,6H15V10H19V6H22L17,1M7.5,22C6.72,22 6.04,21.55 5.71,20.9V20.9L3.1,13.44L3,13A1,1 0 0,1 4,12H20A1,1 0 0,1 21,13L20.96,13.29L18.29,20.9C17.96,21.55 17.28,22 16.5,22H7.5M7.61,20H16.39L18.57,14H5.42L7.61,20Z" /></svg>
